icons/mobile/24/svg/signature-24.svg

<svg width="24" height="24" viewBox="0 0 24 24" fill="none" xmlns="http://www.w3.org/2000/svg">
<path d="M11 2.00419H11.2344C11.8522 2.00429 12.4459 2.24902 12.8838 2.68584L17.3115 7.0999C17.7515 7.5389 18 8.1361 18 8.7581V9.97099C17.9921 9.97899 16.3701 11.6095 16.25 11.7376V8.48759H12C11.448 8.48759 11 8.03962 11 7.48662V3.75419C9.28004 3.7252 7.55805 3.83173 5.87109 4.10771C5.23109 4.21271 4.75 4.79323 4.75 5.46123V18.4817C4.75 19.1657 5.23207 19.7615 5.87207 19.8675C8.90002 20.3695 12.047 20.3723 15.0869 19.8753C15.3678 19.8293 15.6049 19.6862 15.7998 19.5003H17.2324C17.4432 19.5002 17.6498 19.4624 17.8516 19.4095C17.5106 20.5354 16.5761 21.4048 15.3701 21.6028C13.7651 21.8658 12.126 22.0003 10.5 22.0003C8.857 22.0003 7.20291 21.864 5.58691 21.596C4.08795 21.349 3 20.0387 3 18.4817V5.46123C3 3.91928 4.08895 2.62324 5.58887 2.38017C7.36787 2.08917 9.185 1.97419 11 2.00419Z" fill="black"/>
<path d="M9.65918 13.0081C10.2451 13.0762 10.6906 13.5141 10.7676 14.096C10.8556 14.7489 10.9377 15.2378 11.0117 15.6048C11.2746 15.3279 11.6267 15.1433 12.0205 15.0882C12.5815 15.0062 13.1327 15.224 13.5107 15.639C13.5087 15.6819 13.5 15.7249 13.5 15.7679V17.678C13.5 17.6858 13.5019 17.6927 13.502 17.7005C13.191 17.5555 12.9149 17.3379 12.7109 17.053L12.4287 16.6575C12.3677 16.5739 12.2884 16.5655 12.2275 16.5735C12.1785 16.5806 12.0897 16.6094 12.0518 16.7151C11.8578 17.2591 11.5928 18.0003 10.9219 18.0003H10.8984C10.1374 17.9813 9.75306 17.3016 9.41406 15.1966L8.88184 16.5979C8.58587 17.3778 7.82221 17.9005 6.9834 17.9007H6.75098C6.33698 17.9007 6.00098 17.5647 6.00098 17.1507C6.0011 16.7368 6.33706 16.4007 6.75098 16.4007H6.9834C7.20423 16.4005 7.40354 16.2656 7.47949 16.0647L8.33691 13.8079C8.54491 13.2629 9.07418 12.9451 9.65918 13.0081Z" fill="black"/>
<path d="M22.0723 13.8294C21.5923 14.3364 21.1025 14.8337 20.6016 15.3167C19.7156 16.1716 18.7793 17.0043 17.8164 17.7933C17.6515 17.9282 17.4493 18.0002 17.2324 18.0003H15.3223C15.1443 18.0003 15 17.856 15 17.678V15.7679C15 15.5559 15.074 15.3478 15.207 15.1849C15.985 14.2329 16.8187 13.2947 17.6826 12.3987C18.1646 11.8988 18.6639 11.409 19.1719 10.929L22.0723 13.8294Z" fill="black"/>
<path d="M20.9023 9.37138C21.5203 8.84439 22.4485 8.88337 23.0215 9.45634L23.5439 9.97783C24.1169 10.5518 24.1549 11.4839 23.6289 12.0989C23.4049 12.3609 23.1656 12.6153 22.9346 12.8733L20.127 10.0647C20.3859 9.83377 20.6394 9.59536 20.9023 9.37138Z" fill="black"/>
</svg>

<!-- This Source Code Form is subject to the terms of the Mozilla Public
   - License, v. 2.0. If a copy of the MPL was not distributed with this
   - file, You can obtain one at http://mozilla.org/MPL/2.0/. -->
<svg xmlns="http://www.w3.org/2000/svg" width="24" height="24" fill="none" viewBox="0 0 24 24">
    <path fill="#000" d="M11 2.004h.234c.618 0 1.212.245 1.65.682L17.31 7.1c.44.439.689 1.036.689 1.658v1.213c-.008.008-1.63 1.639-1.75 1.767v-3.25H12a1 1 0 0 1-1-1.001V3.754a29 29 0 0 0-5.129.354c-.64.105-1.121.685-1.121 1.353v13.02c0 .685.482 1.28 1.122 1.386a28.5 28.5 0 0 0 9.215.008c.28-.046.518-.189.713-.375h1.432c.211 0 .418-.038.62-.09a3.12 3.12 0 0 1-2.482 2.193 30.1 30.1 0 0 1-9.783-.007C4.087 21.349 3 20.039 3 18.482V5.462c0-1.544 1.089-2.84 2.589-3.082A30.5 30.5 0 0 1 11 2.004" />
    <path fill="#000" d="M9.66 13.008a1.25 1.25 0 0 1 1.108 1.088c.088.653.17 1.142.244 1.509a1.7 1.7 0 0 1 1.008-.517 1.69 1.69 0 0 1 1.49.551c-.001.043-.01.086-.01.129v1.91l.002.023a2 2 0 0 1-.791-.648l-.282-.396a.2.2 0 0 0-.202-.084.21.21 0 0 0-.175.142c-.194.544-.46 1.285-1.13 1.285h-.024c-.76-.019-1.145-.698-1.484-2.803l-.532 1.4a2.04 2.04 0 0 1-1.899 1.304h-.232a.75.75 0 0 1 0-1.5h.232a.53.53 0 0 0 .496-.336l.858-2.257a1.25 1.25 0 0 1 1.322-.8m12.413.822q-.72.76-1.47 1.487a46 46 0 0 1-2.786 2.476.9.9 0 0 1-.584.207h-1.91a.32.32 0 0 1-.322-.322v-1.91c0-.212.074-.42.207-.583a46 46 0 0 1 2.476-2.786q.724-.75 1.489-1.47zm-1.17-4.459a1.57 1.57 0 0 1 2.12.085l.522.522c.573.574.61 1.506.085 2.12-.224.263-.463.517-.694.775l-2.808-2.808c.259-.231.512-.47.775-.694" />
</svg>
